X:1
T:Glory to God in the Highest
T:William Batchelder Bradbury (1816-1868)
T:Glory to God in the Highest
T:Public Domain
T:Public Domain
C:William Batchelder Bradbury (1816-1868)
Z:Public Domain
%%score 1 ( 2 3 )
L:1/8
M:4/4
K:A
V:1 treble 
V:2 bass 
V:3 bass 
V:1
 [EA]2"^Full Chorus" [EA]>[EA] [EA]2 [Ec][Ed] | [Ae]4 [Ec]2 z2 | [EB]2 [EB]>[EB] [EB]2 z2 | %3
w: 1.~Glor- y to God in the|high- est!|Glor- y to God!|
w: 2.~Glor- y to God in the|high- est!|Glor- y to God!|
 [Ec]2 [Ec]>[Ec] [Ec]2 z2 | [EA]2 [EA]>[EA] [EA]2 [Ac][Ad] | [Ae]4 [Ed]2 [EA]2 | %6
w: Glor- y to God!|Glor- y to God in the|high- est! Shall|
w: Glor- y to God!|Glor- y to God in the|high- est! Shall|
 [EB]2 [EB]2 [Ec]3 [DB] | [CA]6"^Semi-Chorus, or Duet" [CE]2 | [CE]2 [CA]2 [CA]2 [DB]2 | %9
w: be our song to-|day; A-|no- ther year’s rich|
w: be our song to-|day; O,|may we, an un-|
 [Ec]2 [Ec]2 [Ec]2 ([Fd][Ec]) | [DB]2 [DB]2 [DB]2 ([CA][DB]) | [Ec]2 [CA]2 [DF]2 [CE]2 | %12
w: mer- cies prove His *|cease- less care and *|bound- less love; So|
w: brok- en band, A- *|round the throne of *|Je- sus stand, And|
 [CE]2 [CA]2 [CA]2 [DB]2 | [Ec]2 [Ec]2 [Ec]2 ([Fd][Ec]) | [DB]2 [DB]2 [DB]2 ([CA][DB]) | %15
w: let our loud- est|voic- es raise Our *|glad and grate- ful *|
w: there with an- gels|and the throng Of *|His re- deemed ones, *|
 [Ec]2 [DB]2 [CA]4 ||"^Full Chorus" [Fd]2 [Fd]>[Fd] [Fd]2 [Fd]>[Fd] | [Fd]4 [Fd]2 z2 | %18
w: song of praise.|||
w: join the song.|||
 [Ec]2 [Ec]>[Ec] [Ec]2 [Ec]>[Ec] | [Ec]4 [Ae]2 z2 |: e2 e2 c2 c2 | A2 A2 E2 E2 | %22
w: ||||
w: ||||
 [EA]2 [EB]2 [Ec]2 [Fd]2 | [Ac]4 [GB]4 | [Ac]6 z2 :| [Ac]4 [EB]4 | [EA]8 |] %27
w: |||||
w: |||||
V:2
 [A,C]2 [A,C]>[A,C] [A,C]2 A,[A,B,] | [A,C]4 A,2 z2 | [E,G,]2 [E,G,]>[E,G,] [E,G,]2 z2 | %3
w: ~ ~ ~ ~ ~ ~|~ ~|~ ~ ~ ~|
 A,2 A,>A, A,2 z2 | [A,C]2 [A,C]>[A,C] [A,C]2 [A,E][B,E] | [CE]4 [A,E]2 [A,C]2 | %6
w: ~ ~ ~ ~|~ ~ ~ ~ ~ ~|~ ~ ~|
 [E,G,]2 [E,G,]2 A,3 [E,G,] | [A,,A,]6 z2 | A,,6 z2 | A,,6 z2 | [E,,E,]6 z2 | [A,,A,]6 z2 | %12
w: ~ ~ ~ ~|~|~|~|~|Glor-|
 A,,6 z2 | A,,6 z2 | [E,,E,]6 z2 | A,2 E,2 A,,4 || [D,A,]2 [D,A,]>[D,A,] [D,A,]2 [D,A,]>[D,A,] | %17
w: y|to|God|in the high-|est! Glor- y to God in|
 [D,A,]4 [D,A,]2 z2 | A,2 A,>A, A,2 A,>A, | A,4 [A,C]2 z2 |: E2 E2 C2 C2 | A,2 A,2 E,2 E,2 | %22
w: the high-|est! Glor- y, glor- y, glor-|to God|high! God on high!||
 [C,A,]2 [E,G,]2 A,2 [D,A,]2 | [E,A,]4 [E,E]4 | [A,,E]6 z2 :| [E,A,]4 [E,D]4 | [A,,C]8 |] %27
w: |||||
V:3
 x6 A, x | x4 A,2 x2 | x8 | A,2 A,>A, A,2 x2 | x8 | x8 | x4 A,3 x | x8 | x8 | x8 | x8 | x8 | x8 | %13
w: ~|~||~ ~ ~ ~|||~|||||||
 x8 | x8 | x8 || x8 | x8 | A,2 A,>A, A,2 A,>A, | A,4 x4 |: x8 | x8 | x4 A,2 x2 | x8 | x8 :| x8 | %26
w: |||||y, glo- ry, Glor- y be|on|||||||
 x8 |] %27
w: |

